dist/img/icon_8.svg

<svg width="71" height="75" viewBox="0 0 71 75" fill="none" xmlns="http://www.w3.org/2000/svg">
<g filter="url(#filter0_d)">
<path d="M42.8473 64.1004C52.8727 64.1004 60.9998 55.9733 60.9998 45.9479C60.9998 35.9226 52.8727 27.7954 42.8473 27.7954C32.822 27.7954 24.6948 35.9226 24.6948 45.9479C24.6948 55.9733 32.822 64.1004 42.8473 64.1004Z" fill="url(#paint0_linear)"/>
</g>
<g filter="url(#filter1_bdi)">
<path d="M55.4028 10.3994C50.8646 10.3994 46.4778 11.307 42.2422 12.971C37.7041 14.7863 33.3172 17.5091 29.5354 21.2909C27.8715 22.9549 25.2999 26.2829 25.4511 26.1316C21.2155 23.4087 15.4672 24.0138 11.6855 27.7956C11.3829 28.0981 10.9291 28.5519 10.7778 28.8545C7.75243 32.9388 7.75243 38.5358 10.9291 42.4688C11.2317 42.7714 11.6855 42.6201 11.6855 42.3176C11.8367 41.41 12.2906 40.5023 13.0469 39.746C15.7698 37.0231 19.7028 39.2922 19.7028 39.2922L27.5689 47.1582C27.5689 47.1582 29.838 51.0913 27.1151 53.8142C26.3587 54.5705 25.4511 55.0243 24.5435 55.1756C24.0897 55.1756 24.0897 55.7807 24.3922 55.932C28.3253 59.1086 34.0736 59.1086 38.0066 56.0832C38.4604 55.7807 38.763 55.4781 39.0655 55.1756C42.8473 51.3938 43.3011 45.7968 40.7295 41.4099C42.3935 40.1998 44.0574 38.8383 45.5701 37.3256C49.3519 33.5439 52.0748 29.3083 53.89 24.6189C55.554 20.3833 56.4617 15.9964 56.4617 11.4583C56.4617 10.8532 56.0078 10.3994 55.4028 10.3994Z" fill="#98B5FF" fill-opacity="0.6"/>
</g>
<g filter="url(#filter2_f)">
<path d="M12.2158 28.3259C15.7276 24.8141 21.0302 24.2454 24.9506 26.7022C25.0161 26.7596 25.0971 26.8093 25.1966 26.8443C25.4521 26.9339 25.6625 26.8561 25.7082 26.8389C25.7817 26.8114 25.8342 26.7784 25.8561 26.7641C25.9036 26.7331 25.9371 26.7033 25.9474 26.6941C25.9624 26.6807 25.9743 26.6691 25.9815 26.6619L26.6395 26.0039L26.5363 25.9376C26.7653 25.6456 27.0612 25.2742 27.394 24.8657C28.224 23.8471 29.2626 22.6244 30.0658 21.8212C33.7685 18.1185 38.0664 15.4494 42.5185 13.6683C46.6744 12.0359 50.9678 11.1494 55.4028 11.1494C55.5936 11.1494 55.7117 11.2674 55.7117 11.4583C55.7117 15.8941 54.8249 20.1881 53.192 24.3446L53.1906 24.3481C51.4132 28.9399 48.748 33.0872 45.0398 36.7953C43.5615 38.2736 41.9294 39.6099 40.2884 40.8034L39.7388 41.2031L40.0825 41.7892C42.4935 45.9022 42.0591 51.1213 38.5352 54.6453C38.2335 54.947 37.9766 55.2018 37.5906 55.4592L37.5695 55.4733L37.5493 55.4888C34.0572 58.175 29.0177 58.2982 25.3844 55.7414C26.1979 55.4813 26.9773 55.0126 27.6454 54.3445C29.2411 52.7488 29.3528 50.7998 29.1023 49.3384C28.977 48.6073 28.759 47.9757 28.5739 47.5286C28.481 47.3039 28.3951 47.1229 28.3312 46.9957C28.2992 46.9321 28.2726 46.8818 28.2533 46.846C28.2436 46.8281 28.2357 46.8139 28.2299 46.8034L28.2226 46.7905L28.2202 46.7863L28.2193 46.7847L28.2189 46.784C28.2187 46.7837 28.2186 46.7835 27.5689 47.1582L28.2186 46.7835L28.1691 46.6978L28.0992 46.6279L20.2332 38.7618L20.1633 38.6919L20.0776 38.6425L19.7028 39.2922C20.0776 38.6425 20.0773 38.6424 20.0771 38.6422L20.0764 38.6418L20.0748 38.6409L20.0705 38.6385L20.0577 38.6312C20.0552 38.6298 20.0525 38.6283 20.0495 38.6267C20.0402 38.6215 20.0287 38.6152 20.015 38.6078C19.9793 38.5884 19.929 38.5618 19.8653 38.5299C19.7382 38.466 19.5572 38.3801 19.3325 38.2871C18.8853 38.1021 18.2538 37.8841 17.5227 37.7588C16.0613 37.5082 14.1123 37.6199 12.5166 39.2156C11.8483 39.8839 11.3795 40.6636 11.1194 41.4773C8.56588 37.8602 8.6804 32.946 11.3805 29.3009L11.4194 29.2484L11.4487 29.1899C11.4748 29.1377 11.5639 29.0139 11.7324 28.8267C11.8873 28.6547 12.0624 28.4793 12.2158 28.3259Z" stroke="#FFDFF4" stroke-opacity="0.2" stroke-width="1.5"/>
</g>
<g filter="url(#filter3_bdi)">
<path fill-rule="evenodd" clip-rule="evenodd" d="M20.227 44.2136C19.1755 43.1621 17.3658 43.1239 16.1245 44.241L16.1167 44.2481C15.5601 44.7351 15.0387 45.3268 14.6434 45.9283C14.4119 46.2807 14.235 46.619 14.116 46.9276C14.4437 46.9721 14.902 46.9838 15.4702 46.8702L17.7249 46.4192L16.1787 48.1201L16.1739 48.1255L16.1533 48.1488C16.1344 48.1703 16.1055 48.2037 16.0682 48.2479C15.9936 48.3363 15.8858 48.4677 15.7579 48.6346C15.5011 48.9695 15.168 49.4407 14.8591 49.988C14.3045 50.9704 13.9074 52.0578 13.9973 53.0152C14.8714 53.083 15.9041 52.6762 16.8714 52.0895C17.4105 51.7624 17.8782 51.4109 18.2121 51.1398C18.3784 51.0047 18.5098 50.891 18.5984 50.8122C18.6427 50.7728 18.6763 50.7422 18.698 50.7221L18.7217 50.7001L18.7266 50.6955L20.4609 49.04L19.9907 51.3907C19.878 51.9545 19.8886 52.41 19.9322 52.7371C20.2166 52.6193 20.5257 52.4452 20.8551 52.2128C21.4374 51.8017 22.0377 51.2401 22.6168 50.5886L22.6316 50.572L22.6473 50.5563C23.6739 49.5297 23.6032 47.5899 22.496 46.4827L20.227 44.2136ZM19.4003 53.6627C18.7238 54.0009 18.7237 54.0006 18.7235 54.0003L18.7225 53.9983L18.721 53.9953L18.7176 53.9883L18.709 53.97C18.7025 53.956 18.6946 53.9382 18.6855 53.9169C18.6673 53.8742 18.6446 53.8169 18.6198 53.7457C18.5703 53.6033 18.5125 53.4047 18.4671 53.1551C18.4513 53.0682 18.437 52.9753 18.4251 52.8766C18.1908 53.0428 17.9324 53.2151 17.6559 53.3828C16.4821 54.0948 14.7552 54.8645 13.1361 54.3883L12.7332 54.2698L12.6207 53.8651C12.1573 52.1969 12.8607 50.4508 13.5418 49.2444C13.7054 48.9545 13.874 48.6849 14.0364 48.4418C13.9181 48.4288 13.8078 48.4124 13.7058 48.3938C13.4562 48.3484 13.2576 48.2907 13.1152 48.2411C13.044 48.2164 12.9867 48.1936 12.944 48.1754C12.9227 48.1664 12.905 48.1584 12.8909 48.1519L12.8727 48.1433L12.8656 48.1399L12.8626 48.1384L12.8613 48.1377C12.8609 48.1376 12.86 48.1371 13.1982 47.4606L12.8613 48.1377L12.3813 47.8978L12.4477 47.3668C12.5433 46.6022 12.9112 45.8097 13.3792 45.0976C13.8528 44.3769 14.4645 43.6842 15.1166 43.113C16.9009 41.5108 19.6265 41.4739 21.2966 43.144L23.5657 45.413C25.1762 47.0235 25.4117 49.9109 23.7333 51.6095C23.1061 52.3132 22.4256 52.9558 21.7274 53.4486C21.0312 53.94 20.2701 54.3162 19.4942 54.4132L18.9632 54.4796L18.7235 54.0003L19.4003 53.6627Z" fill="#FF123D"/>
</g>
<defs>
<filter id="filter0_d" x="14.6948" y="17.7954" width="56.305" height="56.305" filterUnits="userSpaceOnUse" color-interpolation-filters="sRGB">
<feFlood flood-opacity="0" result="BackgroundImageFix"/>
<feColorMatrix in="SourceAlpha" type="matrix" values="0 0 0 0 0 0 0 0 0 0 0 0 0 0 0 0 0 0 127 0"/>
<feOffset/>
<feGaussianBlur stdDeviation="5"/>
<feColorMatrix type="matrix" values="0 0 0 0 0.00833333 0 0 0 0 0.762 0 0 0 0 1 0 0 0 0.5 0"/>
<feBlend mode="normal" in2="BackgroundImageFix" result="effect1_dropShadow"/>
<feBlend mode="normal" in="SourceGraphic" in2="effect1_dropShadow" result="shape"/>
</filter>
<filter id="filter1_bdi" x="-1.47266" y="0.399414" width="67.9343" height="67.9343" filterUnits="userSpaceOnUse" color-interpolation-filters="sRGB">
<feFlood flood-opacity="0" result="BackgroundImageFix"/>
<feGaussianBlur in="BackgroundImage" stdDeviation="5"/>
<feComposite in2="SourceAlpha" operator="in" result="effect1_backgroundBlur"/>
<feColorMatrix in="SourceAlpha" type="matrix" values="0 0 0 0 0 0 0 0 0 0 0 0 0 0 0 0 0 0 127 0"/>
<feOffset dy="-2"/>
<feGaussianBlur stdDeviation="4"/>
<feColorMatrix type="matrix" values="0 0 0 0 0 0 0 0 0 0 0 0 0 0 0 0 0 0 0.1 0"/>
<feBlend mode="normal" in2="effect1_backgroundBlur" result="effect2_dropShadow"/>
<feBlend mode="normal" in="SourceGraphic" in2="effect2_dropShadow" result="shape"/>
<feColorMatrix in="SourceAlpha" type="matrix" values="0 0 0 0 0 0 0 0 0 0 0 0 0 0 0 0 0 0 127 0" result="hardAlpha"/>
<feOffset dy="-2"/>
<feGaussianBlur stdDeviation="3.5"/>
<feComposite in2="hardAlpha" operator="arithmetic" k2="-1" k3="1"/>
<feColorMatrix type="matrix" values="0 0 0 0 1 0 0 0 0 1 0 0 0 0 1 0 0 0 0.3 0"/>
<feBlend mode="normal" in2="shape" result="effect3_innerShadow"/>
</filter>
<filter id="filter2_f" x="7.52734" y="9.39941" width="49.9343" height="49.9343" filterUnits="userSpaceOnUse" color-interpolation-filters="sRGB">
<feFlood flood-opacity="0" result="BackgroundImageFix"/>
<feBlend mode="normal" in="SourceGraphic" in2="BackgroundImageFix" result="shape"/>
<feGaussianBlur stdDeviation="0.5" result="effect1_foregroundBlur"/>
</filter>
<filter id="filter3_bdi" x="2.38135" y="31.9014" width="32.5061" height="32.6343" filterUnits="userSpaceOnUse" color-interpolation-filters="sRGB">
<feFlood flood-opacity="0" result="BackgroundImageFix"/>
<feGaussianBlur in="BackgroundImage" stdDeviation="5"/>
<feComposite in2="SourceAlpha" operator="in" result="effect1_backgroundBlur"/>
<feColorMatrix in="SourceAlpha" type="matrix" values="0 0 0 0 0 0 0 0 0 0 0 0 0 0 0 0 0 0 127 0"/>
<feOffset dy="-2"/>
<feGaussianBlur stdDeviation="4"/>
<feColorMatrix type="matrix" values="0 0 0 0 0 0 0 0 0 0 0 0 0 0 0 0 0 0 0.1 0"/>
<feBlend mode="normal" in2="effect1_backgroundBlur" result="effect2_dropShadow"/>
<feBlend mode="normal" in="SourceGraphic" in2="effect2_dropShadow" result="shape"/>
<feColorMatrix in="SourceAlpha" type="matrix" values="0 0 0 0 0 0 0 0 0 0 0 0 0 0 0 0 0 0 127 0" result="hardAlpha"/>
<feOffset dy="-2"/>
<feGaussianBlur stdDeviation="3.5"/>
<feComposite in2="hardAlpha" operator="arithmetic" k2="-1" k3="1"/>
<feColorMatrix type="matrix" values="0 0 0 0 1 0 0 0 0 1 0 0 0 0 1 0 0 0 0.3 0"/>
<feBlend mode="normal" in2="shape" result="effect3_innerShadow"/>
</filter>
<linearGradient id="paint0_linear" x1="60.5527" y1="45.9479" x2="25.589" y2="45.9479" gradientUnits="userSpaceOnUse">
<stop stop-color="#0075FF"/>
<stop offset="1" stop-color="#5AC4FF"/>
</linearGradient>
</defs>
</svg>

<svg width="71" height="75" fill="none" xmlns="http://www.w3.org/2000/svg"><g filter="url(#filter0_d)"><path d="M42.847 64.1C52.873 64.1 61 55.973 61 45.948s-8.127-18.153-18.153-18.153c-10.025 0-18.152 8.128-18.152 18.153 0 10.025 8.127 18.152 18.152 18.152z" fill="url(#paint0_linear)"/></g><g filter="url(#filter1_bdi)"><path d="M55.403 10.4c-4.538 0-8.925.907-13.16 2.571-4.539 1.815-8.926 4.538-12.708 8.32-1.663 1.664-4.235 4.992-4.084 4.84-4.236-2.722-9.984-2.117-13.766 1.665-.302.302-.756.756-.907 1.059-3.026 4.084-3.026 9.68.151 13.614.303.302.756.151.756-.151.152-.908.606-1.816 1.362-2.572 2.723-2.723 6.656-.454 6.656-.454l7.866 7.866s2.269 3.933-.454 6.656c-.756.757-1.664 1.21-2.571 1.362-.454 0-.454.605-.152.756 3.933 3.177 9.682 3.177 13.615.151.453-.302.756-.605 1.059-.907 3.781-3.782 4.235-9.38 1.663-13.766 1.665-1.21 3.328-2.572 4.841-4.084 3.782-3.782 6.505-8.018 8.32-12.707 1.664-4.236 2.572-8.623 2.572-13.16 0-.606-.454-1.06-1.06-1.06z" fill="#98B5FF" fill-opacity=".6"/></g><g filter="url(#filter2_f)"><path d="M12.216 28.326c3.512-3.512 8.814-4.08 12.735-1.624a.75.75 0 001.03-.04l.659-.658-.104-.066c.23-.292.525-.664.858-1.072.83-1.019 1.869-2.242 2.672-3.045 3.703-3.703 8-6.372 12.453-8.153 4.155-1.632 8.449-2.519 12.884-2.519.19 0 .309.118.309.31 0 4.435-.887 8.73-2.52 12.886l-.001.003c-1.778 4.592-4.443 8.74-8.151 12.447-1.478 1.479-3.11 2.815-4.752 4.008l-.55.4.345.586c2.41 4.113 1.976 9.332-1.548 12.856-.301.302-.558.557-.944.814l-.022.014-.02.016c-3.492 2.686-8.531 2.81-12.165.252a5.635 5.635 0 002.261-1.397c1.596-1.595 1.708-3.544 1.457-5.006a8.585 8.585 0 00-.849-2.492l-.023-.043-.007-.012-.003-.005v-.001l-.001-.001-.65.374.65-.375-.05-.085-.07-.07-7.866-7.866-.07-.07-.085-.05-.375.65.374-.65h0l-.002-.001-.005-.002-.012-.008a.446.446 0 00-.043-.023 8.033 8.033 0 00-.683-.32 8.594 8.594 0 00-1.81-.53c-1.46-.25-3.41-.138-5.005 1.458a5.636 5.636 0 00-1.398 2.261c-2.553-3.617-2.439-8.531.261-12.176l.04-.053.029-.058a2.2 2.2 0 01.283-.363c.155-.172.33-.348.484-.501z" stroke="#FFDFF4" stroke-opacity=".2" stroke-width="1.5"/></g><g filter="url(#filter3_bdi)"><path fill-rule="evenodd" clip-rule="evenodd" d="M20.227 44.214c-1.052-1.052-2.861-1.09-4.102.027l-.008.007a8.496 8.496 0 00-1.474 1.68 5.416 5.416 0 00-.527 1 4.1 4.1 0 001.354-.058l2.255-.45-1.546 1.7-.005.006-.02.023a10.62 10.62 0 00-.395.486c-.258.334-.591.806-.9 1.353-.554.982-.952 2.07-.862 3.027.874.068 1.907-.339 2.874-.925a12.252 12.252 0 001.827-1.368l.024-.022.005-.005 1.734-1.655-.47 2.35a4.102 4.102 0 00-.059 1.347c.285-.118.594-.292.923-.524.582-.411 1.183-.973 1.762-1.624l.015-.017.015-.016c1.027-1.026.956-2.966-.151-4.073l-2.269-2.27zm-.827 9.449l-.676.337-.002-.002-.001-.003-.003-.007-.009-.018a1.93 1.93 0 01-.09-.224 3.969 3.969 0 01-.152-.59 4.705 4.705 0 01-.042-.28c-.234.167-.493.34-.77.507-1.173.712-2.9 1.481-4.519 1.005l-.403-.118-.112-.405c-.464-1.668.24-3.414.92-4.62.164-.29.333-.56.495-.803a4.714 4.714 0 01-.33-.048 3.956 3.956 0 01-.762-.219 1.773 1.773 0 01-.053-.023l-.018-.009-.007-.003-.003-.002h-.002l.337-.677-.337.677-.48-.24.067-.531c.095-.765.463-1.557.931-2.27a10.006 10.006 0 011.738-1.984c1.784-1.602 4.51-1.64 6.18.031l2.269 2.269c1.61 1.61 1.846 4.498.167 6.197-.627.703-1.307 1.346-2.006 1.839-.696.491-1.457.867-2.233.964l-.53.067-.24-.48.676-.337z" fill="#FF123D"/></g><defs><filter id="filter0_d" x="14.695" y="17.795" width="56.305" height="56.305" filterUnits="userSpaceOnUse" color-interpolation-filters="sRGB"><feFlood flood-opacity="0" result="BackgroundImageFix"/><feColorMatrix in="SourceAlpha" values="0 0 0 0 0 0 0 0 0 0 0 0 0 0 0 0 0 0 127 0"/><feOffset/><feGaussianBlur stdDeviation="5"/><feColorMatrix values="0 0 0 0 0.00833333 0 0 0 0 0.762 0 0 0 0 1 0 0 0 0.5 0"/><feBlend in2="BackgroundImageFix" result="effect1_dropShadow"/><feBlend in="SourceGraphic" in2="effect1_dropShadow" result="shape"/></filter><filter id="filter1_bdi" x="-1.473" y=".399" width="67.934" height="67.934" filterUnits="userSpaceOnUse" color-interpolation-filters="sRGB"><feFlood flood-opacity="0" result="BackgroundImageFix"/><feGaussianBlur in="BackgroundImage" stdDeviation="5"/><feComposite in2="SourceAlpha" operator="in" result="effect1_backgroundBlur"/><feColorMatrix in="SourceAlpha" values="0 0 0 0 0 0 0 0 0 0 0 0 0 0 0 0 0 0 127 0"/><feOffset dy="-2"/><feGaussianBlur stdDeviation="4"/><feColorMatrix values="0 0 0 0 0 0 0 0 0 0 0 0 0 0 0 0 0 0 0.1 0"/><feBlend in2="effect1_backgroundBlur" result="effect2_dropShadow"/><feBlend in="SourceGraphic" in2="effect2_dropShadow" result="shape"/><feColorMatrix in="SourceAlpha" values="0 0 0 0 0 0 0 0 0 0 0 0 0 0 0 0 0 0 127 0" result="hardAlpha"/><feOffset dy="-2"/><feGaussianBlur stdDeviation="3.5"/><feComposite in2="hardAlpha" operator="arithmetic" k2="-1" k3="1"/><feColorMatrix values="0 0 0 0 1 0 0 0 0 1 0 0 0 0 1 0 0 0 0.3 0"/><feBlend in2="shape" result="effect3_innerShadow"/></filter><filter id="filter2_f" x="7.527" y="9.399" width="49.934" height="49.934" filterUnits="userSpaceOnUse" color-interpolation-filters="sRGB"><feFlood flood-opacity="0" result="BackgroundImageFix"/><feBlend in="SourceGraphic" in2="BackgroundImageFix" result="shape"/><feGaussianBlur stdDeviation=".5" result="effect1_foregroundBlur"/></filter><filter id="filter3_bdi" x="2.381" y="31.901" width="32.506" height="32.634" filterUnits="userSpaceOnUse" color-interpolation-filters="sRGB"><feFlood flood-opacity="0" result="BackgroundImageFix"/><feGaussianBlur in="BackgroundImage" stdDeviation="5"/><feComposite in2="SourceAlpha" operator="in" result="effect1_backgroundBlur"/><feColorMatrix in="SourceAlpha" values="0 0 0 0 0 0 0 0 0 0 0 0 0 0 0 0 0 0 127 0"/><feOffset dy="-2"/><feGaussianBlur stdDeviation="4"/><feColorMatrix values="0 0 0 0 0 0 0 0 0 0 0 0 0 0 0 0 0 0 0.1 0"/><feBlend in2="effect1_backgroundBlur" result="effect2_dropShadow"/><feBlend in="SourceGraphic" in2="effect2_dropShadow" result="shape"/><feColorMatrix in="SourceAlpha" values="0 0 0 0 0 0 0 0 0 0 0 0 0 0 0 0 0 0 127 0" result="hardAlpha"/><feOffset dy="-2"/><feGaussianBlur stdDeviation="3.5"/><feComposite in2="hardAlpha" operator="arithmetic" k2="-1" k3="1"/><feColorMatrix values="0 0 0 0 1 0 0 0 0 1 0 0 0 0 1 0 0 0 0.3 0"/><feBlend in2="shape" result="effect3_innerShadow"/></filter><linearGradient id="paint0_linear" x1="60.553" y1="45.948" x2="25.589" y2="45.948" gradientUnits="userSpaceOnUse"><stop stop-color="#0075FF"/><stop offset="1" stop-color="#5AC4FF"/></linearGradient></defs></svg>
